packages/ui-icons/src/Basic/16/Movies_16.svg

<svg xmlns="http://www.w3.org/2000/svg" viewBox="0 0 20 20"><path d="M18 10a8 8 0 1 0-8 8h8v-1h-4.14A8 8 0 0 0 18 10Zm-8 7a7 7 0 1 1 7-7 7 7 0 0 1-7 7Zm-3-7a1 1 0 1 1-1-1 1 1 0 0 1 1 1Zm8 0a1 1 0 1 1-1-1 1 1 0 0 1 1 1Zm-4 4a1 1 0 1 1-1-1 1 1 0 0 1 1 1Zm0-8a1 1 0 1 1-1-1 1 1 0 0 1 1 1Z"/></svg>

<svg id="ready" xmlns="http://www.w3.org/2000/svg" viewBox="0 0 20 20"><title>Megaicons_work_16_1.8_cp</title><path d="M18,10a8,8,0,1,0-8,8h8V17H13.86A8,8,0,0,0,18,10Zm-8,7a7,7,0,1,1,7-7A7,7,0,0,1,10,17ZM7,10A1,1,0,1,1,6,9,1,1,0,0,1,7,10Zm8,0a1,1,0,1,1-1-1A1,1,0,0,1,15,10Zm-4,4a1,1,0,1,1-1-1A1,1,0,0,1,11,14Zm0-8a1,1,0,1,1-1-1A1,1,0,0,1,11,6Z"/></svg>
